X:127
T: ACH WIE BALD SCHWINDET SCHOENHEIT
N: E0719
O: Europa, Mitteleuropa, Deutschland, Schwaben
R: Liebes - Lied, Leid, Klage
M: 3/4
L: 1/16
K: G
D3B | B4G4D3c | c4A4
G3B | d4B2d2c3A | A4G4z4
G3BB2B2B2B2 | d2c2A4z4
A3cc2c2c2c2 | e2d2B4
G3B | d4B2d2c3A | A4G4

